theme/space/pix_core/f/math-80.svg

<svg height="50" viewBox="0 0 50 50" width="50" xmlns="http://www.w3.org/2000/svg"><g fill="none"><rect fill="#e5e5e5" height="50" rx="5" width="50"/><g fill="#0002f8" transform="translate(14 11)"><path d="m20.2187441 26.8266147h-8.6248935v-8.6032659h9.2186455v8.0165732c0 .3236656-.2661919.5866927-.593752.5866927zm-19.03124018-.5866927v-8.0165732h9.21884278v8.6032659h-8.62489349c-.3277574 0-.59394929-.2630271-.59394929-.5866927zm.59394929-25.06653667h18.43729089c.3275601 0 .593752.26302705.593752.58669266v5.51264928h-19.62499218v-5.51264928c0-.32366561.26619189-.58669266.59394929-.58669266zm9.81239739 7.27292225h9.2186455v8.60365582h-9.2186455zm-10.40634668 0h9.21884278v8.60365582h-9.21884278zm19.03124018-8.44630758h-18.43729089c-.98248289 0-1.78145321.78947112-1.78145321 1.76007799v24.47984401c0 .9706069.79897032 1.760078 1.78145321 1.760078h18.43729089c.9822856 0 1.7812559-.7894711 1.7812559-1.760078v-24.47984401c0-.97060687-.7989703-1.76007799-1.7812559-1.76007799z"/><path d="m18.6608958 24.2389653h-3.425625c-.3351111 0-.6059791.2710694-.6059791.6059791 0 .3349098.270868.6057778.6059791.6057778h3.425625c.3349098 0 .6059792-.270868.6059792-.6057778 0-.3349097-.2710694-.6059791-.6059792-.6059791z"/><path d="m18.6608958 22.0877292h-3.425625c-.3351111 0-.6059791.2710694-.6059791.6061805 0 .3349097.270868.6059792.6059791.6059792h3.425625c.3349098 0 .6059792-.2710695.6059792-.6059792 0-.3351111-.2710694-.6061805-.6059792-.6061805z"/><path d="m7.63626389 22.16375h-1.10723611v-1.1066319c0-.3349098-.27106945-.6059792-.60597917-.6059792s-.60577778.2710694-.60577778.6059792v1.1066319h-1.10683333c-.33490972 0-.60577778.2710694-.60577778.6059792 0 .3349097.27086806.6059791.60577778.6059791h1.10683333v1.1072361c0 .3349098.27086806.6057778.60577778.6057778s.60597917-.270868.60597917-.6057778v-1.1072361h1.10723611c.33490972 0 .60597917-.2710694.60597917-.6059791 0-.3349098-.27106945-.6059792-.60597917-.6059792z"/><path d="m18.8721528 12.1389167h-3.8481389c-.3349097 0-.6059792.2710694-.6059792.6061805 0 .3349097.2710695.6057778.6059792.6057778h3.8481389c.3351111 0 .6061805-.2708681.6061805-.6057778 0-.3351111-.2710694-.6061805-.6061805-.6061805z"/><path d="m6.78015972 12.5539792 1.17510417-1.1749028c.23663194-.236632.23663194-.6202778 0-.8567083-.23683333-.2368334-.62027778-.2368334-.85690972 0l-1.17510417 1.1749027-1.17490278-1.1749027c-.23643055-.2368334-.62007639-.2368334-.85690972 0-.23643056.2364305-.23643056.6200763 0 .8567083l1.17490278 1.1749028-1.17490278 1.1749027c-.23643056.2368334-.23643056.6202778 0 .8569098.23683333.2368333.62027778.2368333.85690972 0l1.17490278-1.1749028 1.17510417 1.1749028c.23663194.2368333.62007639.2368333.85690972 0 .23663194-.236632.23663194-.6200764 0-.8569098z"/><path d="m10.7171111 3.57122917.2964445-.14560417v2.16714583h-.4492987c-.100493 0-.1905138.03745834-.2622083.11015973-.0668611.07048611-.1015.15970138-.1015.25858333 0 .10049305.0358472.18990972.105125.2591875.069882.06867361.1592986.10472222.2585833.10472222h1.5611667c.098882 0 .1882986-.03544444.2585833-.10290972.0722987-.06927778.1101598-.15929861.1101598-.261 0-.09948611-.0366528-.18990972-.1083473-.26220833-.0708888-.06968056-.1609097-.10653473-.2603958-.10653473h-.3490069v-2.70324305c0-.10774306-.0396736-.20420834-.1143889-.27872222-.0745139-.07572223-.1709792-.11539584-.279125-.11539584h-.106132c-.071493 0-.1419791.01711806-.2112569.05276389l-.6863333.35726389c-.1379514.06988194-.2142778.19172222-.2142778.3425625 0 .10371528.03625.19474306.1047222.26341667.1023056.10250694.2225347.15567361.4474861.0598125z"/><path d="m14.9807153 4.17801389c-.1188195.08861111-.2799306.19816667-.4817222.32725694-.2390487.15426389-.4368125.29221528-.5888612.40881945-.1595.12304861-.296243.26623611-.4057986.42533333-.1202291.17238889-.18125.36471528-.18125.57174306 0 .11841666.0420903.22132639.1214375.29765277.0781389.07632639.1810486.11660417.2976528.11660417h1.9504514c.0988819 0 .1882986-.03544444.2585833-.10290972.0722986-.06927778.1101598-.15929861.1101598-.261 0-.09948611-.0366528-.18990972-.1083473-.26220833-.0710902-.06968056-.1609097-.10653473-.2603958-.10653473h-1.4445625c.0094653-.00825694.0203403-.01711805.0310139-.025375l.0004028-.00060416c.1166041-.09425.2918125-.21971528.5207916-.37236806.2670417-.174.4770903-.32181944.6432361-.453125.1721875-.13674305.3224237-.29825694.446882-.47990972.1337222-.19474306.2011875-.409625.2011875-.63920833 0-.23139584-.0604167-.43983334-.1792361-.61886806-.1178125-.177625-.2789236-.31738889-.479507-.41445833-.1975625-.09586111-.4176805-.14439584-.655118-.14439584-.4247292 0-.8248889.0924375-1.193632.27630556-.1230486.06686111-.1905139.18064583-.1905139.31960417 0 .097875.0344375.18346527.1000903.24911805.1023056.10311111.261.13090278.4011667.061625.2515347-.11197222.5213958-.16876389.8019305-.16876389.240257 0 .4112362.04390278.5089098.13090278.0928402.08357639.1385555.19575.1385555.34457639 0 .08800694-.0298055.17077778-.0912291.2519375-.0722987.09646528-.1639306.18688889-.2722778.26825z"/><path d="m18.6208194 5.51886111c-.1599027.07572222-.3610902.1141875-.5993333.1141875-.2724792 0-.5232083-.04551389-.749368-.13654167-.1661459-.06283333-.3073195-.02557638-.4047917.0815625-.0644445.06927778-.098882.15607639-.098882.25213889 0 .07975.0219514.15023611.0632362.20581945.039875.05578472.09425.09807639.1617152.12606944.3467917.14197917.7219792.21367361 1.1136806.21367361.4142569 0 .7604444-.09545833 1.028493-.28295139.2865764-.19816666.4319792-.48232638.4319792-.84381944 0-.319-.0922361-.56590278-.2732847-.73426389-.0793472-.07411111-.1647361-.13613889-.2545556-.18648611.069882-.05095139.1331181-.10955556.1901111-.17460417.1401667-.16090972.2110556-.3788125.2110556-.64806944 0-.33913889-.1276806-.60597917-.3792153-.79306945-.2372361-.17802777-.5703333-.26804861-.989625-.26804861-.3667291 0-.7272153.09304167-1.0740069.27690973-.1153959.06404166-.1792361.17238888-.1792361.30429861 0 .09646527.03625.18104861.1025069.24327777.0998889.09465278.2205208.12969445.3910972.06102084.2177014-.10129861.4597709-.15285417.7189584-.15285417.2295833 0 .401368.03846528.5089097.1141875.0940486.06565278.13775.148625.13775.25979167 0 .14922916-.059007.24992361-.1915208.32604861-.1540625.0888125-.3882778.13392361-.7278195.13392361-.0966667 0-.1846736.03665278-.2569722.10834722-.0696806.07028472-.1065347.15909722-.1065347.2555625 0 .09767361.0374583.18628472.107743.25677084.0710903.07048611.1590972.10713888.2557639.10713888h.0803542c.9656597 0 .9656597.36451389.9656597.48454167 0 .14338889-.0565903.23441667-.1838681.2954375z"/></g></g></svg>

<?xml version="1.0" encoding="UTF-8"?>
<svg width="50px" height="50px" viewBox="0 0 50 50" version="1.1" xmlns="http://www.w3.org/2000/svg" xmlns:xlink="http://www.w3.org/1999/xlink">
    <title>calc</title>
    <g id="Page-1" stroke="none" stroke-width="1" fill="none" fill-rule="evenodd">
        <g id="calc" fill-rule="nonzero">
            <rect id="Rectangle" fill="#E5E5E5" x="0" y="0" width="50" height="50" rx="5"></rect>
            <g id="Group" transform="translate(14.000000, 11.000000)" fill="#0002F8">
                <path d="M20.2187441,26.8266147 L11.5938506,26.8266147 L11.5938506,18.2233488 L20.8124961,18.2233488 L20.8124961,26.239922 C20.8124961,26.5635876 20.5463042,26.8266147 20.2187441,26.8266147 Z M1.18750392,26.239922 L1.18750392,18.2233488 L10.4063467,18.2233488 L10.4063467,26.8266147 L1.78145321,26.8266147 C1.45369581,26.8266147 1.18750392,26.5635876 1.18750392,26.239922 Z M1.78145321,1.17338533 L20.2187441,1.17338533 C20.5463042,1.17338533 20.8124961,1.43641238 20.8124961,1.76007799 L20.8124961,7.27272727 L1.18750392,7.27272727 L1.18750392,1.76007799 C1.18750392,1.43641238 1.45369581,1.17338533 1.78145321,1.17338533 Z M11.5938506,8.44630758 L20.8124961,8.44630758 L20.8124961,17.0499634 L11.5938506,17.0499634 L11.5938506,8.44630758 Z M1.18750392,8.44630758 L10.4063467,8.44630758 L10.4063467,17.0499634 L1.18750392,17.0499634 L1.18750392,8.44630758 Z M20.2187441,-8.8817842e-16 L1.78145321,-8.8817842e-16 C0.79897032,-8.8817842e-16 -4.88498131e-15,0.78947112 -4.88498131e-15,1.76007799 L-4.88498131e-15,26.239922 C-4.88498131e-15,27.2105289 0.79897032,28 1.78145321,28 L20.2187441,28 C21.2010297,28 22,27.2105289 22,26.239922 L22,1.76007799 C22,0.78947112 21.2010297,-8.8817842e-16 20.2187441,-8.8817842e-16 Z" id="Shape"></path>
                <path d="M18.6608958,24.2389653 L15.2352708,24.2389653 C14.9001597,24.2389653 14.6292917,24.5100347 14.6292917,24.8449444 C14.6292917,25.1798542 14.9001597,25.4507222 15.2352708,25.4507222 L18.6608958,25.4507222 C18.9958056,25.4507222 19.266875,25.1798542 19.266875,24.8449444 C19.266875,24.5100347 18.9958056,24.2389653 18.6608958,24.2389653 Z" id="Path"></path>
                <path d="M18.6608958,22.0877292 L15.2352708,22.0877292 C14.9001597,22.0877292 14.6292917,22.3587986 14.6292917,22.6939097 C14.6292917,23.0288194 14.9001597,23.2998889 15.2352708,23.2998889 L18.6608958,23.2998889 C18.9958056,23.2998889 19.266875,23.0288194 19.266875,22.6939097 C19.266875,22.3587986 18.9958056,22.0877292 18.6608958,22.0877292 Z" id="Path"></path>
                <path d="M7.63626389,22.16375 L6.52902778,22.16375 L6.52902778,21.0571181 C6.52902778,20.7222083 6.25795833,20.4511389 5.92304861,20.4511389 C5.58813889,20.4511389 5.31727083,20.7222083 5.31727083,21.0571181 L5.31727083,22.16375 L4.2104375,22.16375 C3.87552778,22.16375 3.60465972,22.4348194 3.60465972,22.7697292 C3.60465972,23.1046389 3.87552778,23.3757083 4.2104375,23.3757083 L5.31727083,23.3757083 L5.31727083,24.4829444 C5.31727083,24.8178542 5.58813889,25.0887222 5.92304861,25.0887222 C6.25795833,25.0887222 6.52902778,24.8178542 6.52902778,24.4829444 L6.52902778,23.3757083 L7.63626389,23.3757083 C7.97117361,23.3757083 8.24224306,23.1046389 8.24224306,22.7697292 C8.24224306,22.4348194 7.97117361,22.16375 7.63626389,22.16375 L7.63626389,22.16375 Z" id="Path"></path>
                <path d="M18.8721528,12.1389167 L15.0240139,12.1389167 C14.6891042,12.1389167 14.4180347,12.4099861 14.4180347,12.7450972 C14.4180347,13.0800069 14.6891042,13.350875 15.0240139,13.350875 L18.8721528,13.350875 C19.2072639,13.350875 19.4783333,13.0800069 19.4783333,12.7450972 C19.4783333,12.4099861 19.2072639,12.1389167 18.8721528,12.1389167 Z" id="Path"></path>
                <path d="M6.78015972,12.5539792 L7.95526389,11.3790764 C8.19189583,11.1424444 8.19189583,10.7587986 7.95526389,10.5223681 C7.71843056,10.2855347 7.33498611,10.2855347 7.09835417,10.5223681 L5.92325,11.6972708 L4.74834722,10.5223681 C4.51191667,10.2855347 4.12827083,10.2855347 3.8914375,10.5223681 C3.65500694,10.7587986 3.65500694,11.1424444 3.8914375,11.3790764 L5.06634028,12.5539792 L3.8914375,13.7288819 C3.65500694,13.9657153 3.65500694,14.3491597 3.8914375,14.5857917 C4.12827083,14.822625 4.51171528,14.822625 4.74834722,14.5857917 L5.92325,13.4108889 L7.09835417,14.5857917 C7.33498611,14.822625 7.71843056,14.822625 7.95526389,14.5857917 C8.19189583,14.3491597 8.19189583,13.9657153 7.95526389,13.7288819 L6.78015972,12.5539792 Z" id="Path"></path>
                <path d="M10.7171111,3.57122917 L11.0135556,3.425625 L11.0135556,5.59277083 L10.5642569,5.59277083 C10.4637639,5.59277083 10.3737431,5.63022917 10.3020486,5.70293056 C10.2351875,5.77341667 10.2005486,5.86263194 10.2005486,5.96151389 C10.2005486,6.06200694 10.2363958,6.15142361 10.3056736,6.22070139 C10.3755556,6.289375 10.4649722,6.32542361 10.5642569,6.32542361 L12.1254236,6.32542361 C12.2243056,6.32542361 12.3137222,6.28997917 12.3840069,6.22251389 C12.4563056,6.15323611 12.4941667,6.06321528 12.4941667,5.96151389 C12.4941667,5.86202778 12.4575139,5.77160417 12.3858194,5.69930556 C12.3149306,5.629625 12.2249097,5.59277083 12.1254236,5.59277083 L11.7764167,5.59277083 L11.7764167,2.88952778 C11.7764167,2.78178472 11.7367431,2.68531944 11.6620278,2.61080556 C11.5875139,2.53508333 11.4910486,2.49540972 11.3829028,2.49540972 L11.2767708,2.49540972 C11.2052778,2.49540972 11.1347917,2.51252778 11.0655139,2.54817361 L10.3791806,2.9054375 C10.2412292,2.97531944 10.1649028,3.09715972 10.1649028,3.248 C10.1649028,3.35171528 10.2011528,3.44274306 10.269625,3.51141667 C10.3719306,3.61392361 10.4921597,3.66709028 10.7171111,3.57122917 L10.7171111,3.57122917 Z" id="Path"></path>
                <path d="M14.9807153,4.17801389 C14.8618958,4.266625 14.7007847,4.37618056 14.4989931,4.50527083 C14.2599444,4.65953472 14.0621806,4.79748611 13.9101319,4.91409028 C13.7506319,5.03713889 13.6138889,5.18032639 13.5043333,5.33942361 C13.3841042,5.5118125 13.3230833,5.70413889 13.3230833,5.91116667 C13.3230833,6.02958333 13.3651736,6.13249306 13.4445208,6.20881944 C13.5226597,6.28514583 13.6255694,6.32542361 13.7421736,6.32542361 L15.692625,6.32542361 C15.7915069,6.32542361 15.8809236,6.28997917 15.9512083,6.22251389 C16.0235069,6.15323611 16.0613681,6.06321528 16.0613681,5.96151389 C16.0613681,5.86202778 16.0247153,5.77160417 15.9530208,5.69930556 C15.8819306,5.629625 15.7921111,5.59277083 15.692625,5.59277083 L14.2480625,5.59277083 C14.2575278,5.58451389 14.2684028,5.57565278 14.2790764,5.56739583 L14.2794792,5.56679167 C14.3960833,5.47254167 14.5712917,5.34707639 14.8002708,5.19442361 C15.0673125,5.02042361 15.2773611,4.87260417 15.4435069,4.74129861 C15.6156944,4.60455556 15.7659306,4.44304167 15.8903889,4.26138889 C16.0241111,4.06664583 16.0915764,3.85176389 16.0915764,3.62218056 C16.0915764,3.39078472 16.0311597,3.18234722 15.9123403,3.0033125 C15.7945278,2.8256875 15.6334167,2.68592361 15.4328333,2.58885417 C15.2352708,2.49299306 15.0151528,2.44445833 14.7777153,2.44445833 C14.3529861,2.44445833 13.9528264,2.53689583 13.5840833,2.72076389 C13.4610347,2.787625 13.3935694,2.90140972 13.3935694,3.04036806 C13.3935694,3.13824306 13.4280069,3.22383333 13.4936597,3.28948611 C13.5959653,3.39259722 13.7546597,3.42038889 13.8948264,3.35111111 C14.1463611,3.23913889 14.4162222,3.18234722 14.6967569,3.18234722 C14.9370139,3.18234722 15.1079931,3.22625 15.2056667,3.31325 C15.2985069,3.39682639 15.3442222,3.509 15.3442222,3.65782639 C15.3442222,3.74583333 15.3144167,3.82860417 15.2529931,3.90976389 C15.1806944,4.00622917 15.0890625,4.09665278 14.9807153,4.17801389 L14.9807153,4.17801389 Z" id="Path"></path>
                <path d="M18.6208194,5.51886111 C18.4609167,5.59458333 18.2597292,5.63304861 18.0214861,5.63304861 C17.7490069,5.63304861 17.4982778,5.58753472 17.2721181,5.49650694 C17.1059722,5.43367361 16.9647986,5.47093056 16.8673264,5.57806944 C16.8028819,5.64734722 16.7684444,5.73414583 16.7684444,5.83020833 C16.7684444,5.90995833 16.7903958,5.98044444 16.8316806,6.03602778 C16.8715556,6.0918125 16.9259306,6.13410417 16.9933958,6.16209722 C17.3401875,6.30407639 17.715375,6.37577083 18.1070764,6.37577083 C18.5213333,6.37577083 18.8675208,6.2803125 19.1355694,6.09281944 C19.4221458,5.89465278 19.5675486,5.61049306 19.5675486,5.249 C19.5675486,4.93 19.4753125,4.68309722 19.2942639,4.51473611 C19.2149167,4.440625 19.1295278,4.37859722 19.0397083,4.32825 C19.1095903,4.27729861 19.1728264,4.21869444 19.2298194,4.15364583 C19.3699861,3.99273611 19.440875,3.77483333 19.440875,3.50557639 C19.440875,3.1664375 19.3131944,2.89959722 19.0616597,2.71250694 C18.8244236,2.53447917 18.4913264,2.44445833 18.0720347,2.44445833 C17.7053056,2.44445833 17.3448194,2.5375 16.9980278,2.72136806 C16.8826319,2.78540972 16.8187917,2.89375694 16.8187917,3.02566667 C16.8187917,3.12213194 16.8550417,3.20671528 16.9212986,3.26894444 C17.0211875,3.36359722 17.1418194,3.39863889 17.3123958,3.32996528 C17.5300972,3.22866667 17.7721667,3.17711111 18.0313542,3.17711111 C18.2609375,3.17711111 18.4327222,3.21557639 18.5402639,3.29129861 C18.6343125,3.35695139 18.6780139,3.43992361 18.6780139,3.55109028 C18.6780139,3.70031944 18.6190069,3.80101389 18.4864931,3.87713889 C18.3324306,3.96595139 18.0982153,4.0110625 17.7586736,4.0110625 C17.6620069,4.0110625 17.574,4.04771528 17.5017014,4.11940972 C17.4320208,4.18969444 17.3951667,4.27850694 17.3951667,4.37497222 C17.3951667,4.47264583 17.432625,4.56125694 17.5029097,4.63174306 C17.574,4.70222917 17.6620069,4.73888194 17.7586736,4.73888194 L17.8390278,4.73888194 C18.8046875,4.73888194 18.8046875,5.10339583 18.8046875,5.22342361 C18.8046875,5.3668125 18.7480972,5.45784028 18.6208194,5.51886111 L18.6208194,5.51886111 Z" id="Path"></path>
            </g>
        </g>
    </g>
</svg>
